X:166
T: De' Fielzer Eisebunn (3-7), S. 7
N: K1141
O: Luxemburg
S: KINTZELE, Guillaume: An der Ucht, Bd. 3, Luxemburg 1928]
N: in der Quelle mit einer 2. Stimme versehen
R: cherz-, Spottlied]
M: 2/4
L: 1/16
K: G
D2 | G3DD2D2 | E2EED4 | DDDDE2F2 | G4z2
D2 | G3DD2DD | E2EE2D3 | DDDDE2F2 | G4z2
A2 | A3BA3B | A3BA4 | ABAGF2E2 | E3DD2
D2 | G3FG3A | BBBBB4 | AAAAA2A2 | G4z2
G2 | c3cc2A2 | B3BB2B2 | A2A2A3A | G2B2d3
B | c3cc2A2 | B3BB2B2 | A2A2A2A2 | G4z2

@@@ Tune index: 8220
